X:185
T:Lucy's Delight THO1.185
M:C|
L:1/8
Z:vmp. Peter Dunk 2012.from a transcription by Fynn Titford-Mock 2006
B:Thompson's Compleat Collection of 200 Favourite Country Dances Vol.I,1758
Q:1/2=60
K:G
d/c/B/A/ Gd edcB|edcB gdcB|d/c/B/A/ Gd edcB|cdBc A2D2:|
|:d/c/B/A/ Gd ecBg|d/c/B/A/ Gd cA=fA|\
d/c/B/A/ Gd ecBg|c>dcA GG/G/ G2:|
|:BG A/B/c/A/ BG A/B/c/A/|BGcA =FA A/B/c/A/|\
BG A/B/c/A/ BG A/B/c/A/|c>dc>A GG/G/ G2:|

